X: 14066
T: NEVILLE'S REEL
C: Bob McQuillen 16 July'08
B: Bob's Note Book 14 #66
%R: reel
%D:2008
Z: 2020 John Chambers <jc:trillian.mit.edu>
M: C
L: 1/8
K: D
AB \
| d2de dBAB | dBAF E2AB | d2df afdB | ABdf e2fe |
| d2de dBAB | dBAF EFDE | FDFA BAdB | ABde d2  :|
|: de \
| f2af edBA | dfed B2AB | d2dB AFAd | BdAF E2DE |
| F2AF EFDE | FABd efde | f2af efdB | AFGA D2  :|
%%begintext align
%% Every
%% Memorial Day weekend, those nice folks out in
%% Seattle put on the Northwest Folklife Festival.
%% There's a building called the "Roadhouse" with a huge
%% dance hall where folks dance 24/7 (almost!), and
%% Neville Pearsall does a wonderful job of making sure
%% the sound is perfect. Thanks loads, Neville!
%%endtext

%%sep 1 1 500

%%sep 1 1 500

